X:1
T:Title
%%score { 1 | 2 }
L:1/8
M:4/4
K:Db
V:1 treble nm="Grand Piano"
V:2 bass 
V:1
 z4 z2[Q:1/4=88] D2 | F<F F>F [FA]<[FA] [FA][FA] |[M:3/4] B>G d>B [FA]2 |[M:1/4] [FA][FA] | %4
[M:4/4] [GB]>[Gd] [Ac]>[GB] [GB]<[FA] F>F |[M:7/8] E>EF>E [CE]3 |[M:1/4] [CA][EG] | %7
[M:4/4] F>F F>[FA] [Fd]<[Fd] [Fd][Fd] |[M:3/4] [Ge]>[Gd] [Ac]>[GB] [FA]2 |[M:1/4] [FA][FA] | %10
[M:4/4] [Fd]>[Ad] [=Gd]>[_Gd] [Fd]<[Fd] D[DE] |[M:7/8] [DF]<[DA][CE]>[CF] [A,D]3 |[M:1/4] [Fd]2 | %13
[M:4/4] [Ec]<[GB] [FA]>[EG] [DF]2 [FA][FA] | B>c d<[=Ge] c2 BA | %15
 [Fd]>[Ad] [=Gd]>[_Gd] [Fd]<[Fd] D[DE] |[M:15/8] [DF]<[DA][CE]-[CE]/[CF]/ [A,D]2- [A,D] z2 z6 |] %17
V:2
 z4 z2 [D,F,]2 | [D,A,D]<[D,A,D] [D,A,D]>[D,A,D] [D,D]<[D,D] [D,D][D,D] | %2
[M:3/4] [G,DG]>[G,B,D] [G,B,G]>[G,DG] [D,D]2 |[M:1/4] [D,D][D,D] | %4
[M:4/4] [G,D]>[G,B,] [G,C]>[G,D] [D,D]<[D,D] [D,A,D]>[D,A,D] | %5
[M:7/8] [E,A,C]>[E,A,C][E,=G,D]>[E,G,D] [A,,A,]3 |[M:1/4] [A,,A,][A,,A,] | %7
[M:4/4] [D,A,D]>[D,A,D] [D,A,D]>[D,D] [D,D]<[D,D] [D,D][D,D] | %8
[M:3/4] [G,B,]>[G,B,] [G,C]>[G,D] [D,D]2 |[M:1/4] [D,D][D,D] | %10
[M:4/4] [D,A,]>[D,_C] [D,B,]>[D,A,] [D,A,]<[D,A,] [=A,,=G,][A,,G,] | %11
[M:7/8] [A,,A,]<[A,,F,][A,,A,]>[A,,G,] [D,F,]3 |[M:1/4] [D,A,]2 | %13
[M:4/4] [A,,A,]<[A,,A,] [A,,A,]>[A,,A,] [D,A,]2 [D,D][D,D] | %14
 [G,DG]>[G,CG] [G,B,G]<[E,B,][K:treble] [A,E]2 [A,DG][A,CG] | %15
 [D,A,]>[D,_C] [D,B,]>[D,A,] [D,A,]<[D,A,] [=A,,=G,][A,,G,] | %16
[M:15/8] [A,,A,]<[A,,F,][A,,A,]-[A,,A,]/[A,,G,]/ [D,F,]2- [D,F,] z2 z6 |] %17

